app/public/dtpr-icons/regulated.svg

<svg width="36" height="36" viewBox="0 0 36 36" fill="none" xmlns="http://www.w3.org/2000/svg">
<path fill-rule="evenodd" clip-rule="evenodd" d="M20.4785 27.0669H18.9155V26.8889C18.9155 26.3979 18.5175 25.9999 18.0265 25.9999C17.5355 25.9999 17.1375 26.3979 17.1375 26.8889V27.0669H17.1095H15.5185C15.1185 27.0669 14.9225 27.5469 15.2075 27.8219L17.6875 30.3109C17.8655 30.4889 18.1405 30.4889 18.3185 30.3109L20.7985 27.8309C21.0745 27.5469 20.8785 27.0669 20.4785 27.0669Z" fill="black"/>
<path fill-rule="evenodd" clip-rule="evenodd" d="M18.0264 10C18.5174 10 18.9154 9.602 18.9154 9.111V6.444C18.9154 5.954 18.5174 5.556 18.0264 5.556C17.5354 5.556 17.1374 5.954 17.1374 6.444V9.111C17.1374 9.602 17.5354 10 18.0264 10Z" fill="black"/>
<path fill-rule="evenodd" clip-rule="evenodd" d="M14.4443 16.6665C13.9533 16.6665 13.5553 17.0645 13.5553 17.5555V21.1115C13.5553 21.6025 13.9533 22.0005 14.4443 22.0005C14.9353 22.0005 15.3333 21.6025 15.3333 21.1115V17.5555C15.3333 17.0645 14.9353 16.6665 14.4443 16.6665Z" fill="black"/>
<path fill-rule="evenodd" clip-rule="evenodd" d="M21.5557 16.6665C21.0647 16.6665 20.6667 17.0645 20.6667 17.5555V21.1115C20.6667 21.6025 21.0647 22.0005 21.5557 22.0005C22.0467 22.0005 22.4447 21.6025 22.4447 21.1115V17.5555C22.4447 17.0645 22.0467 16.6665 21.5557 16.6665Z" fill="black"/>
<path fill-rule="evenodd" clip-rule="evenodd" d="M18 16.6665C17.509 16.6665 17.111 17.0645 17.111 17.5555V21.1145C17.111 21.6055 17.509 22.0035 18 22.0035C18.491 22.0035 18.889 21.6055 18.889 21.1145V17.5555C18.889 17.0645 18.491 16.6665 18 16.6665Z" fill="black"/>
<path fill-rule="evenodd" clip-rule="evenodd" d="M24.2227 22.8887H11.7777C11.2867 22.8887 10.8887 23.2867 10.8887 23.7777C10.8887 24.2687 11.2867 24.6667 11.7777 24.6667H24.2227C24.7127 24.6667 25.1117 24.2687 25.1117 23.7777C25.1117 23.2867 24.7127 22.8887 24.2227 22.8887Z" fill="black"/>
<path fill-rule="evenodd" clip-rule="evenodd" d="M11.7778 15.7778H24.2228C24.6448 15.7778 25.0078 15.4808 25.0928 15.0678C25.1778 14.6538 24.9598 14.2378 24.5718 14.0718L18.3498 11.4048C18.1268 11.3098 17.8738 11.3098 17.6498 11.4048L11.4278 14.0718C11.0398 14.2378 10.8218 14.6538 10.9068 15.0678C10.9918 15.4808 11.3558 15.7778 11.7778 15.7778Z" fill="black"/>
<rect x="2" y="2" width="32" height="32" rx="16" stroke="black" stroke-width="2"/>
</svg>

<svg xmlns="http://www.w3.org/2000/svg" width="36" height="36" fill="none"><path fill="#000" fill-rule="evenodd" d="M20.479 27.067h-1.563v-.178a.889.889 0 1 0-1.779 0v.178H15.52a.44.44 0 0 0-.312.755l2.48 2.489a.44.44 0 0 0 .631 0l2.48-2.48a.45.45 0 0 0-.32-.764M18.026 10a.89.89 0 0 0 .89-.889V6.444a.889.889 0 0 0-1.779 0v2.667c0 .491.398.889.89.889M14.444 16.667a.89.89 0 0 0-.889.888v3.557a.889.889 0 1 0 1.778 0v-3.556a.89.89 0 0 0-.889-.89M21.556 16.667a.89.89 0 0 0-.89.888v3.557a.889.889 0 1 0 1.779 0v-3.556a.89.89 0 0 0-.89-.89M18 16.667a.89.89 0 0 0-.889.888v3.56a.889.889 0 1 0 1.778 0v-3.56a.89.89 0 0 0-.889-.889M24.223 22.889H11.778a.889.889 0 1 0 0 1.778h12.445a.89.89 0 0 0 0-1.778M11.778 15.778h12.445a.888.888 0 0 0 .349-1.706l-6.222-2.667a.9.9 0 0 0-.7 0l-6.222 2.667a.889.889 0 0 0 .35 1.706" clip-rule="evenodd"/><rect width="32" height="32" x="2" y="2" stroke="#000" stroke-width="2" rx="16"/></svg>
